X:110
T:From Night Till Morn. LIT.110
M:2/2
Q:1/4=140
L:1/8
B:Wm. Litten MS, 1802
Z:Village Music Project 2017 Anne Wride
K:D
a>g |f2f2f3f | ed ef d2 ef | gfed defg | a3b/g/ f2a>g |
f2f2f3f | ed ef d2 ef | gfed defg | f2 g/f/e d2d2 |
defg a3a | a2b>a a2za | b3ad'3f | a3b/g/ f2 a^g/=g/ |
.f2 .f2 .f2 z2 | ed ef d2 ef | gfed defg | a3b/g/ f2 a^g/=g/ |
.f2.f2.f2z2 | ed ef d2ef | gfed defg | f2e2d2  a^g/=g/ |
zf zf za gf | ze ze zg fe | d/e/f/g/ a/b/c'/d'/ ze fg | f2 ed/e/ d2 |]

